X: 746
P: Longways for as many as will
M: 6/8
L: 1/8
K: C
V: 1
c2c |\
|: efg |\
g3 efg | g3 efg | a2g f2e | d2c efg |\
g3 efg | g3 efg | a2g f2e | d3 :|
V: 2 clef=bass middle=d
c3 |\
e3 f3 | e2c zzc | g2e d2c | g2c zzc |\
e3 f3 | e2c e3 | f3 g3 | c3 :|
|:\
zzc' |\
b2g zzc' | b2g zze | f2e d2c | g2c zzc' |\
b2g zzc' | b2g c2e | f2e d2c | g3 "^D.C.":|

